X:76
T:Paynes 1st Set Of Quadrilles No.1. Le4.076
B:L.Leadley MS#4 c1850
Z:Village Music Project, 2016 Steve Mansfield
M:6/8
L:1/8
Q:3/8=90
K:G
g2-g | gfg a2g | g3 b2b | c2c a2a | d2B g2g |
gfg aga | g3 b2b | dcB agf | g3 H ||
d2d | ^cBA b2b | a3 f2a | g2a efg | fed d2d |
^cBA bab | a3 gbg | faf edc | d3 !segno! ||
b2a | efg a2f | ^dfd B^cd | efg gfe | d2B b2a |
gab c2B | ABc BcA | gaf ef^d | e2z !segno! |]

